X:1
T:Desiderium animae - Anerio
T:#
%%score { 1 | 2 } 3 4 5
L:1/8
Q:1/4=200
M:none
K:F
V:1 treble nm="Soprano" snm="S"
V:2 treble 
V:3 treble nm="Alto" snm="A"
V:4 treble-8 nm="Tenor" snm="T"
V:5 bass nm="Bass" snm="B"
V:1
"^Desiderium animae""^Felice Anerio\n(c. 1560-1614)" d12 d4 | d4 d4 c4 B4- | B2 B2 A4 G8 | %3
w: De- si-|de- ri- um a\-|* ni- mae e-|
 ^F8 G4 G4 | =B4 c4 d8- |[M:4/2] d4 c4 d6 d2 | =B16 | d8 d4 d4 | c8 B4 d4- | d4 c4 B4 A4 | d8 d8 | %11
w: ius tri- bu-|i- sti e\-|* i Do- mi-|ne,|et vo- lun-|ta- te la\-|* bi- o- rum|e- ius,|
 z8 d8- | d4 c4 B4 A4 | G8 c8 | c6 c2 c4 B4 | A16 | =B16 ||[M:4/2]"^Quartet" d12 d4 | d8 =B6 B2 | %19
w: la\-|* bi- o- rum|e- ius|non frau- da- sti|e-|um.|Quo- ni-|am prae- ve-|
 =B4 c4 d8 | d8 _B8 | A4 B4 G4 F4 | G4 A4 B4 d4- | d4 (_e8 d2 c2 | =B2 AB c8) B4 | c8 z4 c4- | %26
w: ni- sti e-|um in|be- ne- di- cti-|o- ni- bus dul\-|* ce\- * *|* * * * di-|nis: po\-|
 c2 c2 c4 A8 | A4 A6 A2 A4 | (F6 G2 A4) A4 | z4 e4 f4 f2 e2 | d4 d4 e4 g4- | g2 f2 e2 d2 c8- | %32
w: * su- i- sti|in ca- pi- te|e\- * * ius|co- ro- nam de|la- pi- de pre\-||
 c4 B4 A8 | =B8 z4 G4 | (A6 B2 c4) F4 | F4 f8 d4 | d8 d16 ||[M:4/2]"^Chorus" d8 d4 d4 | c8 B4 d4- | %39
w: * ti- o-|so, de|la\- * * pi-|de pre- ti-|o- so.|et vo- lun-|ta- te la\-|
 d4 c4 B4 A4 | d8 d8 | z8 d8- | d4 c4 B4 A4 | G8 c8 | c6 c2 c4 B4 | A16 | =B16 |] %47
w: * bi- o- rum|e- ius,|la\-|* bi- o- rum|e- ius|non frau- da- sti|e-|um.|
V:2
 x16 | x16 | x16 | x16 | x16 |[M:4/2] x16 | x16 | x16 | x16 | x16 | x16 | x16 | x16 | x16 | x16 | %15
w: |||||||||||||||
 x16 | x16 ||[M:4/2][K:treble] B12 A4 | A8 G6 G2 | G4 A4 B8 | B8 d8 | c4 d4 B4 B4 | _e6 e2 d4 B4 | %23
w: ||Quo- ni-|am prae- ve-|ni- sti e-|um in|be- ne- di- cti-|o- ni- bus dul-|
 B12 A4 | G16 | G8 A8 | G8 c8 | f4 e6 e2 e4 | d4 (d8 ^c2 =B2 | ^c8) z4 A4 | B4 B2 A2 G4 G4 | %31
w: ce- di-|nis:|po- su-|i- sti|in ca- pi- te|e- ius, * *|* co-|ro- nam de la- pi-|
 G4 (c2 B2 A2 G2 A4-) | A4 G6 (^FE F4) | G4 d4 e4 e2 d2 | c6 B2 A8- | A4 c8 B4 | A8 =B16 || %37
w: de pre\- * * * *|* ti- o\- * *|so, co- ro- nam de|la- pi- de|* pre- ti-|o- so.|
[M:4/2] x16 | x16 | x16 | x16 | x16 | x16 | x16 | x16 | x16 | x16 |] %47
w: ||||||||||
V:3
 B12 B4 | A6 A2 A4 F4- | F2 F2 F4 D8 | D8 D4 D4 | (G6 A2 B4) B4 |[M:4/2] A4 G4 A6 A2 | D16 | %7
w: De- si-|de- ri- um a\-|* ni- mae e-|ius tri- bu-|i\- * * sti|e- i Do- mi-|ne,|
 D8 F4 G4 | A8 D4 B4- | B2 A2 G8 ^F4 | G4 G2 D2 =F4 G4 | A8 D8 | F6 F2 G4 A4 | B8 A4 A4- | %14
w: et vo- lun-|ta- te la\-|* bi- o- rum|e- ius, et vo- lun-|ta- te|la- bi- o- rum|e- ius non|
 A2 A2 A4 G4 (G4- | G4 ^F2 E2 F8) | G16 || G12 ^F4 | ^F8 z4 D2 D2 | D4 =F4 F8 | F8 z4 B,4 | %21
w: * frau- da- sti e\-||um.|Quo- ni-|am prae- ve-|ni- sti e-|um in|
 F4 D4 _E4 D4 | C6 C2 B,4 F4- | F4 (G8 F2 E2 | D4) _E4 D8 | z4 =E4 E4 (F4- | F4 E4) F4 C4 | %27
w: be- ne- di- cti-|o- ni- bus dul\-|* ce\- * *|* di- nis:|po- su- i\-|* * sti in|
 D4 ^C4 C8 | (D6 E2 F4 E2 D2 | E4) E4 D8 | G4 G2 F2 E6 D2 | C8 F4 F4 | G8 D4 D4- | %33
w: ca- pi- te|e\- * * * *|* ius co-|ro- nam de la- pi-|de pre- ti-|o- so, co\-|
 D4 G4 G2 F2 E4- | E2 D2 C8 (c4- | c2 B2 A2 G2 A4) G4- | G4 ^F4 G16 || D8 F4 G4 | A8 D4 B4- | %39
w: * ro- nam de- la\-|* pi- de pre\-|* * * * * ti\-|* o- so.|et vo- lun-|ta- te la\-|
 B2 A2 G8 ^F4 | G4 G2 D2 =F4 G4 | A8 D8 | F6 F2 G4 A4 | B8 A4 A4- | A2 A2 A4 G4 (G4- | %45
w: * bi- o- rum|e- ius, et vo- lun-|ta- te|la- bi- o- rum|e- ius non|* frau- da- sti e\-|
 G4 ^F2 E2 F8) | G16 |] %47
w: |um.|
V:4
 g12 g4 | f6 f2 f4 d4- | d2 d2 c4 B8 | A8 =B4 B4 | d4 e4 f8 |[M:4/2][K:treble-8] ^f4 g8 f4 | g16 | %7
w: De- si-|de- ri- um a\-|* ni- mae e-|ius tri- bu-|i- sti e-|i Do- mi-|ne,|
 z16 | z8 G8 | B4 c4 d8 | G8 z4 d4 | e4 f4 g4 f4 | B4 c4 d8 | d4 e4 f4 f4- | f2 f2 c4 _e4 d4 | %15
w: |et|vo- lun- ta-|te, et|vo- lun- ta- te|la- bi- o-|rum e- ius non|* frau- da- sti e-|
 d16- | d16 ||[M:4/2] z16 | z16 | z16 | z16 | z16 |[M:4/2] z16 | z16 | z16 | z16 | z16 | %27
w: um.||||||||||||
[M:4/2] z16 | z16 | z16 | z16 | z16 |[M:4/2] z16 | z16 | z16 | z16 | z24 || %37
w: ||||||||||
[M:4/2][K:treble-8] z16 | z8 G8 | B4 c4 d8 | G8 z4 d4 | e4 f4 g4 f4 | B4 c4 d8 | d4 e4 f4 f4- | %44
w: |et|vo- lun- ta-|te, et|vo- lun- ta- te|la- bi- o-|rum e- ius non|
 f2 f2 c4 _e4 d4 | d16- | d16 |] %47
w: * frau- da- sti e-|um.||
V:5
 G,8 G,8 | D6 D2 A,4 B,4- | B,2 B,2 F,4 G,8 | D,8 G,6 G,2 | G,4 C4 (B,6 C2) | %5
w: De- si-|de- ri- um a\-|* ni- mae e-|ius tri- bu-|i- sti e\- *|
[M:4/2] D4 _E4 D4 D,4 | G,16 | z16 | z16 | z16 | B,8 B,4 B,4 | A,8 G,4 B,4- | B,4 A,4 G,4 ^F,4 | %13
w: * i Do- mi-|ne,||||et vo- lun-|ta- te la\-|* bi- o- rum|
 G,8 =F,8 | F,6 F,2 C,4 G,4 | D,16 | G,16 || G,12 D,4 | D,8 G,6 G,2 | G,4 F,4 B,8 | B,16 | z16 | %22
w: e- ius|non frau- da- sti|e-|um.|Quo- ni-|am prae- ve-|ni- sti e-|um||
 z8 z4 B,4- | B,4 _E,8 F,4 | G,16 | C8 A,8 | C8 F,8 | D,4 A,6 A,2 A,4 | B,8 A,8- | A,8 z8 | z16 | %31
w: dul\-|* ce- di-|nis:|po- su-|i- sti|in ca- pi- te|e- ius|||
 z16 | z16 | G,8 C4 C2 B,2 | A,6 G,2 F,8 | F,12 G,4 | D,8 G,16 || z16 | z16 | z16 | B,8 B,4 B,4 | %41
w: ||co- ro- nam de|la- pi- de|pre- ti-|o- so.||||et vo- lun-|
 A,8 G,4 B,4- | B,4 A,4 G,4 ^F,4 | G,8 =F,8 | F,6 F,2 C,4 G,4 | D,16 | G,16 |] %47
w: ta- te la\-|* bi- o- rum|e- ius|non frau- da- sti|e-|um.|

